X:249
T: Kerry Jigg
N: O'Farrell's Pocket Companion v.3 (Sky ed. p.118)
N: "Irish"
M: 6/8
L: 1/8
R: jig
Q: 320
K: Am
A3 AGE| ABA AGE| GAB cGE| G3 E3|
A2B c2A| Bdc BAG| c2A BdB| c3 c3 :|
efe edc| e2 ^f g3| GAB cGE| G3 E3|
A2B c2A Bdc BAG| c2A BdB| c3 c3 :|
